1-exam/assets/images/Union.svg

<svg width="33" height="32" viewBox="0 0 33 32" fill="none" xmlns="http://www.w3.org/2000/svg">
<path fill-rule="evenodd" clip-rule="evenodd" d="M21.0937 4.75L23.5201 7.17431L30.7006 0H25.7852L21.0937 4.75ZM32.0274 8.11181L28.6001 4.75L32.0274 1.32568V8.11181ZM6.07855 19.7489L12.2572 13.5755L14.6832 15.9994L8.50457 22.1728L6.07855 19.7489ZM21.0898 19.7505L27.2684 13.5771L29.6944 16.0011L23.5158 22.1745L21.0898 19.7505ZM16.0097 17.326L13.5837 19.7499L19.7624 25.9233L22.1884 23.4994L16.0097 17.326ZM12.2605 21.0757L18.4401 27.25L16.0137 29.7368L9.83409 23.5L12.2605 21.0757ZM31.0891 17.3257L32.0274 18.2632V23.1118L28.6001 19.75L31.0891 17.3257ZM2.32615 15.9989L8.50483 9.8255L10.9308 12.2494L4.75218 18.4228L2.32615 15.9989ZM23.516 9.82713L17.3374 16.0005L19.7634 18.4245L25.9421 12.2511L23.516 9.82713ZM27.2733 6.07568L32.0274 10.7632V15.6118L24.8469 8.5L27.2733 6.07568ZM13.5873 4.75L19.7669 10.9243L22.1933 8.5L16.0137 2.26318L13.5873 4.75ZM12.2582 6.07672L9.83214 8.50067L16.0108 14.6741L18.4368 12.2501L12.2582 6.07672ZM25.9465 27.25L23.5201 24.8257L16.4022 32H21.255L25.9465 27.25ZM12.2605 28.5757L14.6869 31.0625L13.7486 32H8.89579L12.2605 28.5757ZM10.9337 27.25L8.50728 24.8257L1.32683 32H6.24215L10.9337 27.25ZM24.8469 23.5L27.2733 21.0757L32.0274 25.7632V30.6743L24.8469 23.5ZM0 23.8882V30.6743L3.42724 27.25L0 23.8882ZM23.9086 32L27.2733 28.5757L30.7006 32H23.9086ZM17.3405 0.9375L19.7669 3.42431L23.1316 0H18.2788L17.3405 0.9375ZM8.11876 0L4.75407 3.42431L1.32683 0H8.11876ZM4.75406 25.9243L7.18045 23.5L0 16.3882V21.2368L4.75406 25.9243ZM8.50727 7.17431L6.08088 4.75L10.7724 0H15.6252L8.50727 7.17431ZM4.75406 10.9243L7.18045 8.5L0 1.32568V6.23681L4.75406 10.9243ZM3.42724 12.25L0.938302 14.6743L0 13.7368V8.88818L3.42724 12.25Z" fill="white"/>
</svg>

<svg xmlns="http://www.w3.org/2000/svg" width="33" height="32" fill="none"><path fill="#fff" fill-rule="evenodd" d="m21 4.8 2.5 2.4L30.7 0h-5l-4.6 4.8ZM32 8l-3.4-3.3L32 1.3v6.8ZM6 19.7l6.3-6.1 2.4 2.4-6.2 6.2-2.4-2.5Zm15 0 6.3-6.1 2.4 2.4-6.2 6.2-2.4-2.4Zm-5-2.4-2.4 2.4 6.2 6.2 2.4-2.4-6.2-6.2Zm-3.7 3.8 6.1 6.1-2.4 2.5-6.2-6.2 2.5-2.4ZM31 17.3l1 1V23l-3.5-3.4 2.5-2.4ZM2.3 16l6.2-6.2 2.4 2.4-6.1 6.2L2.3 16Zm21.2-6.2L17.3 16l2.5 2.4 6.1-6.1-2.4-2.5Zm3.8-3.7 4.7 4.7v4.8l-7.2-7.1 2.5-2.4ZM13.6 4.8l6.2 6.1 2.4-2.4L16 2.3l-2.4 2.5ZM12.3 6 9.8 8.5l6.2 6.2 2.4-2.4L12.3 6Zm13.6 21.1-2.4-2.4-7.1 7.2h4.9l4.6-4.8Zm-13.6 1.4 2.4 2.5-1 .9H9l3.4-3.4Zm-1.4-1.4-2.4-2.4L1.3 32h5l4.6-4.8Zm14-3.7 2.4-2.4 4.7 4.7v4.9l-7.2-7.2ZM0 23.9v6.8l3.4-3.4L0 23.9ZM24 32l3.3-3.4 3.4 3.4h-6.8ZM17.2 1l2.5 2.4L23 0h-4.8l-1 1ZM8.1 0 4.8 3.4 1.3 0h6.8ZM4.8 26l2.4-2.5L0 16.4v4.8L4.8 26ZM8.5 7.1 6.1 4.7 10.8 0h4.8l-7 7.2Zm-3.7 3.7 2.4-2.4L0 1.3v5l4.8 4.6Zm-1.4 1.3L1 14.8l-.9-1V9l3.4 3.3Z" clip-rule="evenodd"/></svg>
